public/assets/formheimur/blokkir.svg

<svg viewBox="0 0 375 281" fill="none" xmlns="http://www.w3.org/2000/svg" class="formheimur-blokkir"><style>.formheimur-blokkir{--litur1: var(--theme-color-primary, #dcddde);--litur2: var(--theme-color-secondary, #ebeced);--litur3: var(--theme-color-tertiary, #f3f4f5)}[data-color-theme=trustworthy] .formheimur-blokkir{--litur1: var(--theme-color-tertiary);--litur2: var(--theme-color-primary);--litur3: var(--theme-color-secondary)}[data-color-theme=lively] .formheimur-blokkir{--litur1: var(--theme-color-tertiary);--litur3: var(--theme-color-primary)}</style><path d="M375 0H0v281h375V0z" fill="var(--litur3)"/><path d="M375 187H0v94h375v-94z" fill="var(--litur1)"/><path d="M375 94H0v93h375V94z" fill="#fff"/><path d="M201 94h-28v93h28V94zm-101 0H71v93h29V94zm203 0h-29v93h29V94z" fill="var(--litur2)"/></svg>

<svg viewBox="0 0 375 281" fill="none" xmlns="http://www.w3.org/2000/svg" class="formheimur-blokkir"><style>.formheimur-blokkir {
		--litur1: var(--theme-color-primary, #dcddde);
		--litur2: var(--theme-color-secondary, #ebeced);
		--litur3: var(--theme-color-tertiary, #f3f4f5);
	}

	/* Frávik */
	[data-color-theme=&apos;trustworthy&apos;] .formheimur-blokkir {
		--litur1: var(--theme-color-tertiary);
		--litur2: var(--theme-color-primary);
		--litur3: var(--theme-color-secondary);
	}
	[data-color-theme=&apos;lively&apos;] .formheimur-blokkir {
		--litur1: var(--theme-color-tertiary);
		--litur3: var(--theme-color-primary);
	}</style><path d="M375 0H0V281H375V0Z" fill="var(--litur3)"/><path d="M375 187H0V281H375V187Z" fill="var(--litur1)"/><path d="M375 94H0V187H375V94Z" fill="white"/><path d="M201 94H173V187H201V94Z" fill="var(--litur2)"/><path d="M100 94H71V187H100V94Z" fill="var(--litur2)"/><path d="M303 94H274V187H303V94Z" fill="var(--litur2)"/></svg>
